src/svg/copy.svg

<?xml version="1.0" encoding="UTF-8"?>
<svg width="16px" height="16px" viewBox="0 0 16 16" version="1.1" xmlns="http://www.w3.org/2000/svg" xmlns:xlink="http://www.w3.org/1999/xlink">
    <!-- Generator: Sketch 50.2 (55047) - http://www.bohemiancoding.com/sketch -->
    <title>copy</title>
    <desc>Created with Sketch.</desc>
    <defs></defs>
    <g id="copy" stroke="none" stroke-width="1" fill="none" fill-rule="evenodd">
        <path d="M0.999913067,9.99999988 L-8.88045447e-05,10.0000001 L-8.88045447e-05,2.00842236 C-8.90630636e-05,0.904674734 0.894058942,0.00958482502 1.99780596,0.00842299807 L9.99947369,2.77002352e-07 L10.0005263,0.999999723 L1.99885858,1.00842244 C1.44698507,1.00900336 0.999911066,1.45654831 0.999911195,2.00842212 L0.999913067,9.99999988 Z" id="line" fill="#000000" fill-rule="nonzero"></path>
        <path d="M11,4.20710678 L11,8.00128586 L14.7941791,8.00128586 L11,4.20710678 Z M15,9.00128586 L11,9.00128586 C10.4477153,9.00128586 10,8.55357061 10,8.00128586 L10,4 L4.5,4 C4.22385763,4 4,4.22385763 4,4.5 L4,14.5 C4,14.7761424 4.22385763,15 4.5,15 L14.5,15 C14.7761424,15 15,14.7761424 15,14.5 L15,9.00128586 Z M11,3 C11.1326082,3 11.2597852,3.05267842 11.3535534,3.14644661 L15.8535534,7.64644661 C15.9473216,7.7402148 16,7.86739176 16,8 L16,14.5 C16,15.3284271 15.3284271,16 14.5,16 L4.5,16 C3.67157288,16 3,15.3284271 3,14.5 L3,4.5 C3,3.67157288 3.67157288,3 4.5,3 L11,3 Z" id="paper" fill="#000000" fill-rule="nonzero"></path>
    </g>
</svg>

<?xml version="1.0" encoding="utf-8"?>
<!-- Generator: Adobe Illustrator 22.0.1, SVG Export Plug-In . SVG Version: 6.00 Build 0)  -->
<!DOCTYPE svg PUBLIC "-//W3C//DTD SVG 1.1//EN" "http://www.w3.org/Graphics/SVG/1.1/DTD/svg11.dtd">
<svg version="1.1" id="Layer_1" xmlns="http://www.w3.org/2000/svg" xmlns:xlink="http://www.w3.org/1999/xlink" x="0px" y="0px"
	 width="16px" height="16px" viewBox="0 0 16 16" style="enable-background:new 0 0 16 16;" xml:space="preserve">
<title>copy</title>
<desc>Created with Sketch.</desc>
<g id="copy">
	<path id="line" d="M1,10H0V2c0-1.1,0.9-2,2-2l8,0l0,1L2,1C1.4,1,1,1.5,1,2L1,10z"/>
	<path id="paper" d="M11,4.2V8h3.8L11,4.2z M15,9h-4c-0.6,0-1-0.4-1-1V4H4.5C4.2,4,4,4.2,4,4.5v10C4,14.8,4.2,15,4.5,15h10
		c0.3,0,0.5-0.2,0.5-0.5V9z M11,3c0.1,0,0.3,0.1,0.4,0.1l4.5,4.5C15.9,7.7,16,7.9,16,8v6.5c0,0.8-0.7,1.5-1.5,1.5h-10
		C3.7,16,3,15.3,3,14.5v-10C3,3.7,3.7,3,4.5,3H11z"/>
</g>
</svg>
